source/img/svg/bckg-slide-main.svg

<svg width="450" height="210" viewBox="0 0 450 210" fill="none" xmlns="http://www.w3.org/2000/svg">
<path d="M335.311 165.797L309.352 150.808L335.311 135.819V165.797Z" fill="#0A3D76"/>
<path d="M335.311 210L309.352 195.011L335.311 180.022V210Z" fill="#0A3D76"/>
<path d="M343.688 210L369.647 195.011L343.688 180.022V210Z" fill="#0A3D76"/>
<path d="M266.757 165.797L292.717 150.808L266.757 135.819V165.797Z" fill="#0A3D76"/>
<path d="M257.749 165.797L231.789 150.808L257.749 135.819V165.797Z" fill="#0A3D76"/>
<path d="M189.827 165.797L215.787 150.808L189.827 135.819V165.797Z" fill="#0A3D76"/>
<path d="M180.819 165.797L154.859 150.808L180.819 135.819V165.797Z" fill="#0A3D76"/>
<path d="M112.897 165.797L138.857 150.808L112.897 135.819V165.797Z" fill="#0A3D76"/>
<path d="M104.888 165.797L78.9282 150.808L104.888 135.819V165.797Z" fill="#0A3D76"/>
<path d="M36.8174 165.797L62.7371 150.808L36.8174 135.819V165.797Z" fill="#0A3D76"/>
<path d="M27.958 165.797L1.99805 150.808L27.958 135.819V165.797Z" fill="#0A3D76"/>
<path d="M266.757 210L292.717 195.011L266.757 180.022V210Z" fill="#0A3D76"/>
<path d="M257.749 210L231.789 195.011L257.749 180.022V210Z" fill="#0A3D76"/>
<path d="M189.827 210L215.787 195.011L189.827 180.022V210Z" fill="#0A3D76"/>
<path d="M180.819 210L154.859 195.011L180.819 180.022V210Z" fill="#0A3D76"/>
<path d="M112.897 210L138.857 195.011L112.897 180.022V210Z" fill="#0A3D76"/>
<path d="M104.888 210L78.9282 195.011L104.888 180.022V210Z" fill="#0A3D76"/>
<path d="M36.8174 210L62.7371 195.011L36.8174 180.022V210Z" fill="#0A3D76"/>
<path d="M27.958 210L1.99805 195.011L27.958 180.022V210Z" fill="#0A3D76"/>
<path d="M411.865 165.797L385.905 150.808L411.865 135.819V165.797Z" fill="#0A3D76"/>
<path d="M343.688 165.797L369.647 150.808L343.688 135.819V165.797Z" fill="#0A3D76"/>
<path d="M420.617 165.797L446.537 150.808L420.617 135.819V165.797Z" fill="#0A3D76"/>
<path d="M411.865 210L385.905 195.011L411.865 180.022V210Z" fill="#0A3D76"/>
<path d="M420.617 210L446.537 195.011L420.617 180.022V210Z" fill="#0A3D76"/>
<path d="M332.733 118.7L311.716 106.564L332.733 94.4283V118.7Z" fill="#0E4E96"/>
<path d="M409.374 118.7L388.356 106.564L409.374 94.4283V118.7Z" fill="#2B6BB3"/>
<path d="M343.688 118.7L364.705 106.564L343.688 94.4283V118.7Z" fill="#2B6BB3"/>
<path d="M266.757 94.4283L287.774 106.564L266.757 118.7V94.4283Z" fill="#0E4E96"/>
<path d="M257.802 94.4283L236.785 106.564L257.802 118.7V94.4283Z" fill="#2B6BB3"/>
<path d="M420.617 118.7L441.634 106.564L420.617 94.4283V118.7Z" fill="#0E4E96"/>
<path d="M266.757 72.166L283.796 62.3208L266.757 52.4755V72.166Z" fill="#2B6BB3"/>
<path d="M332.752 72.166L315.713 62.3208L332.752 52.4755V72.166Z" fill="#2B6BB3"/>
<path d="M343.688 72.166L360.686 62.3208L343.688 52.4755V72.166Z" fill="#639CDC"/>
<path d="M408.449 72.166L391.411 62.3208L408.449 52.4755V72.166Z" fill="#2B6BB3"/>
<path d="M420.617 72.166L437.656 62.3208L420.617 52.4755V72.166Z" fill="#639CDC"/>
<path d="M189.827 94.4686L210.844 106.564L189.827 118.74V94.4686Z" fill="#2B6BB3"/>
<path d="M112.897 94.4686L133.915 106.564L112.897 118.74V94.4686Z" fill="#2B6BB3"/>
<path d="M180.872 94.4686L159.854 106.564L180.872 118.74V94.4686Z" fill="#0E4E96"/>
<path d="M104.941 94.4686L83.9238 106.564L104.941 118.74V94.4686Z" fill="#0E4E96"/>
<path d="M38.9473 94.4283L59.9644 106.564L38.9473 118.7V94.4283Z" fill="#0E4E96"/>
<path d="M28.0108 94.4283L6.99365 106.564L28.0108 118.7V94.4283Z" fill="#0E4E96"/>
<path d="M372.03 142.248L348.683 128.786L372.03 115.284V142.248Z" fill="#0A3D76"/>
<path d="M298.098 142.248L274.75 128.786L298.098 115.284V142.248Z" fill="#0A3D76"/>
<path d="M371.645 187.979L345.686 172.99L371.645 158.001V187.979Z" fill="#0A3D76"/>
<path d="M297.713 187.979L271.753 172.99L297.713 158.001V187.979Z" fill="#0A3D76"/>
<path d="M371.607 95.4732L352.679 84.543L371.607 73.6127V95.4732Z" fill="#2B6BB3"/>
<path d="M383.651 142.248L406.999 128.786L383.651 115.284V142.248Z" fill="#0E4D94"/>
<path d="M383.651 187.979L409.611 172.99L383.651 158.001V187.979Z" fill="#0A3D76"/>
<path d="M383.651 95.4732L402.578 84.543L383.651 73.6127V95.4732Z" fill="#0E4E96"/>
<path d="M450 142.248L426.612 128.786L450 115.284V142.248Z" fill="#0A3D76"/>
<path d="M449.575 187.979L423.615 172.99L449.575 158.001V187.979Z" fill="#0A3D76"/>
<path d="M449.496 95.4732L430.608 84.543L449.496 73.6127V95.4732Z" fill="#0E4E96"/>
<path d="M141.662 142.248L118.314 128.786L141.662 115.284V142.248Z" fill="#0A3D76"/>
<path d="M152.593 142.248L175.981 128.786L152.593 115.284V142.248Z" fill="#0E4D94"/>
<path d="M66.3088 142.248L42.9609 128.786L66.3088 115.284V142.248Z" fill="#0A3D76"/>
<path d="M77.2397 142.248L100.628 128.786L77.2397 115.284V142.248Z" fill="#0E4D94"/>
<path d="M0 142.248L23.3881 128.786L0 115.284V142.248Z" fill="#0E4D94"/>
<path d="M220.169 142.248L196.821 128.786L220.169 115.284V142.248Z" fill="#0A3D76"/>
<path d="M227.793 142.248L251.141 128.786L227.793 115.284V142.248Z" fill="#2B6BB3"/>
<path d="M306.721 142.248L330.069 128.786L306.721 115.284V142.248Z" fill="#0A3D76"/>
<path d="M306.721 187.979L332.641 172.99L306.721 158.001V187.979Z" fill="#0A3D76"/>
<path d="M219.784 187.979L193.824 172.99L219.784 158.001V187.979Z" fill="#0A3D76"/>
<path d="M227.793 187.979L253.753 172.99L227.793 158.001V187.979Z" fill="#0A3D76"/>
<path d="M142.948 187.979L116.988 172.99L142.948 158.001V187.979Z" fill="#0A3D76"/>
<path d="M151.307 187.979L177.267 172.99L151.307 158.001V187.979Z" fill="#0A3D76"/>
<path d="M66.3944 187.979L40.4746 172.99L66.3944 158.001V187.979Z" fill="#0A3D76"/>
<path d="M74.7529 187.979L100.713 172.99L74.7529 158.001V187.979Z" fill="#0A3D76"/>
<path d="M0 187.979L25.9198 172.99L0 158.001V187.979Z" fill="#0A3D76"/>
<path d="M306.721 95.4732L325.649 84.543L306.721 73.6127V95.4732Z" fill="#0E4E96"/>
<path d="M0 95.4732L18.9274 84.543L0 73.6127V95.4732Z" fill="#0E4E96"/>
<path d="M154.24 73.6127L173.127 84.543L154.24 95.4732V73.6127Z" fill="#2B6BB3"/>
<path d="M140.135 73.6127L121.208 84.543L140.135 95.4732V73.6127Z" fill="#0E4E96"/>
<path d="M77.686 73.6127L96.6135 84.543L77.686 95.4732V73.6127Z" fill="#0E4E96"/>
<path d="M63.7818 73.6127L44.8945 84.543L63.7818 95.4732V73.6127Z" fill="#639CDC"/>
<path d="M227.793 73.6127L246.72 84.543L227.793 95.4732V73.6127Z" fill="#639CDC"/>
<path d="M219.705 73.6127L200.817 84.543L219.705 95.4732V73.6127Z" fill="#0E4E96"/>
<path d="M297.634 73.6127L278.747 84.543L297.634 95.4732V73.6127Z" fill="#0E4E96"/>
<path d="M309.07 53.1766L324.381 44.3359L309.07 35.4952V53.1766Z" fill="#2B6BB3"/>
<path d="M383.651 53.1766L399.002 44.3359L383.651 35.4952V53.1766Z" fill="#2B6BB3"/>
<path d="M449.915 53.1766L434.604 44.3359L449.915 35.4952V53.1766Z" fill="#2B6BB3"/>
<path d="M28.029 72.166L10.9902 62.3208L28.029 52.4755V72.166Z" fill="#2B6BB3"/>
<path d="M39.9121 72.166L56.9508 62.3208L39.9121 52.4755V72.166Z" fill="#639CDC"/>
<path d="M104.959 72.166L87.9199 62.3208L104.959 52.4755V72.166Z" fill="#2B6BB3"/>
<path d="M112.897 72.166L129.896 62.3208L112.897 52.4755V72.166Z" fill="#2B6BB3"/>
<path d="M0 53.1766L15.3107 44.3359L0 35.4952V53.1766Z" fill="#2B6BB3"/>
<path d="M62.7375 53.1766L47.4268 44.3359L62.7375 35.4952V53.1766Z" fill="#2B6BB3"/>
<path d="M180.85 72.166L163.851 62.3208L180.85 52.4755V72.166Z" fill="#639CDC"/>
<path d="M189.827 72.166L206.866 62.3208L189.827 52.4755V72.166Z" fill="#2B6BB3"/>
<path d="M257.819 72.166L240.781 62.3208L257.819 52.4755V72.166Z" fill="#2B6BB3"/>
<path d="M155.205 53.1766L170.515 44.3359L155.205 35.4952V53.1766Z" fill="#2B6BB3"/>
<path d="M227.793 53.1766L243.104 44.3359L227.793 35.4952V53.1766Z" fill="#2B6BB3"/>
</svg>

<svg width="450" height="210" fill="none" xmlns="http://www.w3.org/2000/svg"><path d="M335.311 165.797l-25.959-14.989 25.959-14.989v29.978zm0 44.203l-25.959-14.989 25.959-14.989V210zm8.377 0l25.959-14.989-25.959-14.989V210zm-76.931-44.203l25.96-14.989-25.96-14.989v29.978zm-9.008 0l-25.96-14.989 25.96-14.989v29.978zm-67.922 0l25.96-14.989-25.96-14.989v29.978zm-9.008 0l-25.96-14.989 25.96-14.989v29.978zm-67.922 0l25.96-14.989-25.96-14.989v29.978zm-8.009 0l-25.96-14.989 25.96-14.989v29.978zm-68.071 0l25.92-14.989-25.92-14.989v29.978zm-8.859 0l-25.96-14.989 25.96-14.989v29.978zM266.757 210l25.96-14.989-25.96-14.989V210zm-9.008 0l-25.96-14.989 25.96-14.989V210zm-67.922 0l25.96-14.989-25.96-14.989V210zm-9.008 0l-25.96-14.989 25.96-14.989V210zm-67.922 0l25.96-14.989-25.96-14.989V210zm-8.009 0l-25.96-14.989 25.96-14.989V210zm-68.071 0l25.92-14.989-25.92-14.989V210zm-8.859 0l-25.96-14.989 25.96-14.989V210zm383.907-44.203l-25.96-14.989 25.96-14.989v29.978zm-68.177 0l25.959-14.989-25.959-14.989v29.978zm76.929 0l25.92-14.989-25.92-14.989v29.978zM411.865 210l-25.96-14.989 25.96-14.989V210zm8.752 0l25.92-14.989-25.92-14.989V210z" fill="#0A3D76"/><path d="M332.733 118.7l-21.017-12.136 21.017-12.136V118.7z" fill="#0E4E96"/><path d="M409.374 118.7l-21.018-12.136 21.018-12.136V118.7zm-65.686 0l21.017-12.136-21.017-12.136V118.7z" fill="#2B6BB3"/><path d="M266.757 94.428l21.017 12.136-21.017 12.136V94.428z" fill="#0E4E96"/><path d="M257.802 94.428l-21.017 12.136 21.017 12.136V94.428z" fill="#2B6BB3"/><path d="M420.617 118.7l21.017-12.136-21.017-12.136V118.7z" fill="#0E4E96"/><path d="M266.757 72.166l17.039-9.845-17.039-9.846v19.691zm65.995 0l-17.039-9.845 17.039-9.846v19.691z" fill="#2B6BB3"/><path d="M343.688 72.166l16.998-9.845-16.998-9.846v19.691z" fill="#639CDC"/><path d="M408.449 72.166l-17.038-9.845 17.038-9.846v19.691z" fill="#2B6BB3"/><path d="M420.617 72.166l17.039-9.845-17.039-9.846v19.691z" fill="#639CDC"/><path d="M189.827 94.469l21.017 12.095-21.017 12.176V94.469zm-76.93 0l21.018 12.095-21.018 12.176V94.469z" fill="#2B6BB3"/><path d="M180.872 94.469l-21.018 12.095 21.018 12.176V94.469zm-75.931 0l-21.017 12.095 21.017 12.176V94.469zm-65.994-.041l21.017 12.136L38.947 118.7V94.428zm-10.937 0L6.995 106.564 28.01 118.7V94.428z" fill="#0E4E96"/><path d="M372.03 142.248l-23.347-13.462 23.347-13.502v26.964zm-73.932 0l-23.348-13.462 23.348-13.502v26.964zm73.547 45.731l-25.959-14.989 25.959-14.989v29.978zm-73.932 0l-25.96-14.989 25.96-14.989v29.978z" fill="#0A3D76"/><path d="M371.607 95.473l-18.928-10.93 18.928-10.93v21.86z" fill="#2B6BB3"/><path d="M383.651 142.248l23.348-13.462-23.348-13.502v26.964z" fill="#0E4D94"/><path d="M383.651 187.979l25.96-14.989-25.96-14.989v29.978z" fill="#0A3D76"/><path d="M383.651 95.473l18.927-10.93-18.927-10.93v21.86z" fill="#0E4E96"/><path d="M450 142.248l-23.388-13.462L450 115.284v26.964zm-.425 45.731l-25.96-14.989 25.96-14.989v29.978z" fill="#0A3D76"/><path d="M449.496 95.473l-18.888-10.93 18.888-10.93v21.86z" fill="#0E4E96"/><path d="M141.662 142.248l-23.348-13.462 23.348-13.502v26.964z" fill="#0A3D76"/><path d="M152.593 142.248l23.388-13.462-23.388-13.502v26.964z" fill="#0E4D94"/><path d="M66.309 142.248L42.96 128.786l23.348-13.502v26.964z" fill="#0A3D76"/><path d="M77.24 142.248l23.388-13.462-23.388-13.502v26.964zm-77.24 0l23.388-13.462L0 115.284v26.964z" fill="#0E4D94"/><path d="M220.169 142.248l-23.348-13.462 23.348-13.502v26.964z" fill="#0A3D76"/><path d="M227.793 142.248l23.348-13.462-23.348-13.502v26.964z" fill="#2B6BB3"/><path d="M306.721 142.248l23.348-13.462-23.348-13.502v26.964zm0 45.731l25.92-14.989-25.92-14.989v29.978zm-86.937 0l-25.96-14.989 25.96-14.989v29.978zm8.009 0l25.96-14.989-25.96-14.989v29.978zm-84.845 0l-25.96-14.989 25.96-14.989v29.978zm8.359 0l25.96-14.989-25.96-14.989v29.978zm-84.913 0l-25.92-14.989 25.92-14.989v29.978zm8.359 0l25.96-14.989-25.96-14.989v29.978zm-74.753 0l25.92-14.989L0 158.001v29.978z" fill="#0A3D76"/><path d="M306.721 95.473l18.928-10.93-18.928-10.93v21.86zM0 95.473l18.927-10.93L0 73.613v21.86z" fill="#0E4E96"/><path d="M154.24 73.613l18.887 10.93-18.887 10.93v-21.86z" fill="#2B6BB3"/><path d="M140.135 73.613l-18.927 10.93 18.927 10.93v-21.86zm-62.449 0l18.927 10.93-18.927 10.93v-21.86z" fill="#0E4E96"/><path d="M63.782 73.613l-18.887 10.93 18.887 10.93v-21.86zm164.011 0l18.927 10.93-18.927 10.93v-21.86z" fill="#639CDC"/><path d="M219.705 73.613l-18.888 10.93 18.888 10.93v-21.86zm77.929 0l-18.887 10.93 18.887 10.93v-21.86z" fill="#0E4E96"/><path d="M309.07 53.177l15.311-8.841-15.311-8.84v17.68zm74.581 0l15.351-8.841-15.351-8.84v17.68zm66.264 0l-15.311-8.841 15.311-8.84v17.68zM28.029 72.166L10.99 62.321l17.039-9.846v19.691z" fill="#2B6BB3"/><path d="M39.912 72.166l17.039-9.845-17.039-9.846v19.691z" fill="#639CDC"/><path d="M104.959 72.166l-17.04-9.845 17.04-9.846v19.691zm7.938 0l16.999-9.845-16.999-9.846v19.691zM0 53.177l15.31-8.841L0 35.496v17.68zm62.737 0l-15.31-8.841 15.31-8.84v17.68z" fill="#2B6BB3"/><path d="M180.85 72.166l-16.999-9.845 16.999-9.846v19.691z" fill="#639CDC"/><path d="M189.827 72.166l17.039-9.845-17.039-9.846v19.691zm67.992 0l-17.038-9.845 17.038-9.846v19.691zM155.205 53.177l15.31-8.841-15.31-8.84v17.68zm72.588 0l15.311-8.841-15.311-8.84v17.68z" fill="#2B6BB3"/></svg>
